src/assets/svg/icons/fa/nuevos/classic/duotone/road-spikes classic duotone.svg

<svg xmlns="http://www.w3.org/2000/svg" viewBox="0 0 640 512"><defs><style>.fa-secondary{opacity:.4}</style></defs><path class="fa-primary" d="M0 416C0 398.3 14.33 384 32 384H608C625.7 384 640 398.3 640 416C640 433.7 625.7 448 608 448H32C14.33 448 0 433.7 0 416z"/><path class="fa-secondary" d="M416 246.9V114.8C416 99.11 436.1 92.77 445.1 105.6L581.8 300.8C598.8 325.2 608 354.2 608 384H32V114.8C32 99.11 52.14 92.77 61.11 105.6L160 246.9V114.8C160 99.11 180.1 92.77 189.1 105.6L288 246.9V114.8C288 99.11 308.1 92.77 317.1 105.6L416 246.9z"/></svg>

<svg xmlns="http://www.w3.org/2000/svg" viewBox="0 0 640 512"><!--! Font Awesome Pro 6.4.0 by @fontawesome - https://fontawesome.com License - https://fontawesome.com/license (Commercial License) Copyright 2023 Fonticons, Inc. --><defs><style>.fa-secondary{opacity:.4}</style></defs><path class="fa-primary" d="M0 416c0-17.7 14.3-32 32-32H608c17.7 0 32 14.3 32 32s-14.3 32-32 32H32c-17.7 0-32-14.3-32-32z"/><path class="fa-secondary" d="M416 246.9V114.8c0-15.6 20.1-22 29.1-9.2L581.8 300.8C598.8 325.2 608 354.2 608 384H450.5 416 322.5 288 194.5 160 32V114.8c0-15.6 20.1-22 29.1-9.2L160 246.9V114.8c0-15.6 20.1-22 29.1-9.2L288 246.9V114.8c0-15.6 20.1-22 29.1-9.2L416 246.9z"/></svg>
